64x64/apps/mntray.svg

<svg xmlns="http://www.w3.org/2000/svg" width="64" height="64" version="1">
 <path style="opacity:0.2" d="M 12.777778,17 C 11.238889,17 10,18.2265 10,19.75 v 32.599 c 0,1.5235 1.238901,2.644906 2.777778,2.651 h 25 l 5.555556,6 5.555554,-6 h 8.333334 C 58.761112,55 60,53.8725 60,52.349 V 19.75 C 60,18.2265 58.761112,17 57.222222,17 Z"/>
 <path style="fill:#35454c" d="M 12.777778,16 C 11.238889,16 10,17.2265 10,18.75 v 32.599 c 0,1.5235 1.238901,2.644906 2.777778,2.651 h 25 l 5.555556,6 5.555554,-6 h 8.333334 C 58.761112,54 60,52.8725 60,51.349 V 18.75 C 60,17.2265 58.761112,16 57.222222,16 Z"/>
 <path style="opacity:0.1;fill:#f4f4f7" d="M 12.777344 16 C 11.238455 16 10 17.2265 10 18.75 L 10 19.75 C 10 18.2265 11.238455 17 12.777344 17 L 57.222656 17 C 58.761546 17 60 18.2265 60 19.75 L 60 18.75 C 60 17.2265 58.761546 16 57.222656 16 L 12.777344 16 z"/>
 <path style="opacity:0.2" d="M 5.6695652,5 C 4.744626,5 4,5.7446262 4,6.6695652 V 37.331216 c 0,0.92494 0.744626,1.669566 1.6695652,1.669566 H 14 V 15 H 26 V 5 Z M 28,5 v 34.000782 h 8.329216 C 37.254158,39.000782 38,38.256156 38,37.331216 V 6.6695652 C 38,5.7446262 37.254158,5 36.329216,5 Z M 16,17 V 39.000782 H 26 V 17 Z"/>
 <path style="fill:#16a085" d="M 5.6695652,4 C 4.744626,4 4,4.7446262 4,5.6695652 V 36.331216 c 0,0.92494 0.744626,1.669566 1.6695652,1.669566 H 14 V 14 H 26 V 4 Z M 28,4 v 34.000782 h 8.329216 C 37.254158,38.000782 38,37.256156 38,36.331216 V 5.6695652 C 38,4.7446262 37.254158,4 36.329216,4 Z M 16,16 V 38.000782 H 26 V 16 Z"/>
 <path style="opacity:0.2;fill:#f4f4f7" d="M 5.6679688 4 C 4.7430296 4 4 4.7430298 4 5.6679688 L 4 6.6679688 C 4 5.7430298 4.7430296 5 5.6679688 5 L 26 5 L 26 4 L 5.6679688 4 z M 28 4 L 28 5 L 36.328125 5 C 37.253067 5 38 5.7430297 38 6.6679688 L 38 5.6679688 C 38 4.7430298 37.253067 4 36.328125 4 L 28 4 z M 16 16 L 16 17 L 26 17 L 26 16 L 16 16 z"/>
</svg>

<svg xmlns="http://www.w3.org/2000/svg" width="64" height="64" version="1"><path style="opacity:.2" d="M12.778 17C11.238 17 10 18.227 10 19.75v32.599c0 1.524 1.239 2.645 2.778 2.651h25l5.555 6 5.556-6h8.333C58.762 55 60 53.873 60 52.349V19.75c0-1.523-1.239-2.75-2.778-2.75z"/><path style="fill:#35454c" d="M12.778 16C11.238 16 10 17.227 10 18.75v32.599c0 1.524 1.239 2.645 2.778 2.651h25l5.555 6 5.556-6h8.333C58.762 54 60 52.873 60 51.349V18.75c0-1.523-1.239-2.75-2.778-2.75z"/><path style="opacity:.1;fill:#f4f4f7" d="M12.777 16A2.758 2.758 0 0 0 10 18.75v1A2.758 2.758 0 0 1 12.777 17h44.446A2.758 2.758 0 0 1 60 19.75v-1A2.758 2.758 0 0 0 57.223 16H12.777z"/><path style="opacity:.2" d="M5.67 5C4.745 5 4 5.745 4 6.67V37.33c0 .925.745 1.67 1.67 1.67H14V15h12V5zM28 5v34h8.33c.924 0 1.67-.744 1.67-1.669V6.67C38 5.745 37.254 5 36.33 5zM16 17v22h10V17z"/><path style="fill:#16a085" d="M5.67 4C4.745 4 4 4.745 4 5.67V36.33c0 .925.745 1.67 1.67 1.67H14V14h12V4zM28 4v34h8.33c.924 0 1.67-.744 1.67-1.669V5.67C38 4.745 37.254 4 36.33 4zM16 16v22h10V16z"/><path style="opacity:.2;fill:#f4f4f7" d="M5.668 4C4.743 4 4 4.743 4 5.668v1C4 5.743 4.743 5 5.668 5H26V4H5.668zM28 4v1h8.328C37.253 5 38 5.743 38 6.668v-1C38 4.743 37.253 4 36.328 4H28zM16 16v1h10v-1H16z"/></svg>
